X: 43268
T: Women Of The Sidhe
R: jig
M: 6/8
K: Gmajor
|:egf edB|ebb eaa|egf ede|gfe deB|
egf edB|ebb eaa|egf ede|gfe e2 B:|
|:cda cgc|edc BcA|cGc Acd|edc ABc|
cda cgc|edc BcA|cGc ABc|1 dec d2 B:|2 deB d z2||

